flaticon/essential/worldwide.svg

<svg xmlns="http://www.w3.org/2000/svg" width="32" height="32" viewBox="0 0 24 24">
    <path d="M 18.804688 2.121094 L 18.824219 2.109375 L 18.292969 1.78125 C 18.261719 1.761719 18.230469 1.746094 18.199219 1.726562 C 18.023438 1.625 17.847656 1.523438 17.667969 1.425781 C 17.578125 1.378906 17.484375 1.332031 17.394531 1.285156 C 17.257812 1.21875 17.121094 1.152344 16.984375 1.089844 C 16.902344 1.050781 16.824219 1.011719 16.742188 0.976562 C 16.527344 0.886719 16.3125 0.800781 16.089844 0.71875 C 16.046875 0.703125 16 0.6875 15.953125 0.671875 C 15.761719 0.605469 15.566406 0.542969 15.371094 0.484375 C 15.308594 0.46875 15.246094 0.449219 15.183594 0.433594 C 14.964844 0.371094 14.746094 0.316406 14.523438 0.269531 C 14.5 0.265625 14.480469 0.257812 14.460938 0.253906 C 14.214844 0.203125 13.964844 0.160156 13.714844 0.125 C 13.65625 0.117188 13.601562 0.109375 13.546875 0.105469 C 13.351562 0.078125 13.152344 0.0585938 12.953125 0.0429688 C 12.886719 0.0390625 12.820312 0.03125 12.753906 0.0273438 C 12.503906 0.0117188 12.253906 0 12 0 C 11.726562 0 11.457031 0.0117188 11.1875 0.03125 C 11.117188 0.0351562 11.046875 0.0390625 10.976562 0.046875 C 10.726562 0.0664062 10.472656 0.09375 10.226562 0.132812 C 10.203125 0.136719 10.175781 0.140625 10.152344 0.140625 C 9.902344 0.179688 9.65625 0.230469 9.410156 0.285156 C 9.332031 0.300781 9.25 0.320312 9.171875 0.339844 C 8.945312 0.394531 8.722656 0.453125 8.503906 0.519531 C 8.433594 0.542969 8.363281 0.566406 8.296875 0.585938 C 8.097656 0.652344 7.90625 0.722656 7.710938 0.792969 C 7.625 0.828125 7.535156 0.863281 7.449219 0.898438 C 7.226562 0.988281 7.011719 1.085938 6.796875 1.1875 C 6.726562 1.222656 6.65625 1.261719 6.585938 1.296875 C 6.417969 1.378906 6.253906 1.46875 6.09375 1.5625 C 6.011719 1.609375 5.929688 1.652344 5.847656 1.703125 C 5.644531 1.824219 5.445312 1.949219 5.25 2.082031 C 5.226562 2.101562 5.195312 2.117188 5.171875 2.136719 L 4.953125 2.289062 L 4.953125 2.296875 C 1.953125 4.480469 0 8.015625 0 12 C 0 18.617188 5.382812 24 12 24 C 18.617188 24 24 18.617188 24 12 C 24 7.90625 21.9375 4.289062 18.804688 2.121094 Z M 6.035156 2.527344 C 6.164062 2.445312 6.296875 2.367188 6.425781 2.289062 C 6.5 2.25 6.574219 2.203125 6.648438 2.164062 C 6.832031 2.0625 7.023438 1.96875 7.210938 1.878906 C 7.292969 1.839844 7.378906 1.800781 7.460938 1.765625 C 7.601562 1.703125 7.742188 1.644531 7.882812 1.585938 C 7.960938 1.554688 8.039062 1.523438 8.117188 1.496094 C 8.320312 1.417969 8.523438 1.351562 8.730469 1.289062 C 8.808594 1.265625 8.882812 1.242188 8.960938 1.222656 C 9.121094 1.175781 9.28125 1.136719 9.445312 1.097656 C 9.519531 1.078125 9.589844 1.0625 9.664062 1.046875 C 9.886719 1 10.113281 0.957031 10.339844 0.921875 C 10.390625 0.914062 10.441406 0.910156 10.496094 0.902344 C 10.6875 0.878906 10.878906 0.855469 11.070312 0.839844 C 11.140625 0.835938 11.207031 0.828125 11.273438 0.824219 C 11.515625 0.8125 11.757812 0.800781 12 0.800781 C 12.210938 0.800781 12.421875 0.808594 12.632812 0.820312 C 12.695312 0.824219 12.753906 0.828125 12.8125 0.832031 C 12.964844 0.84375 13.117188 0.855469 13.265625 0.875 C 13.335938 0.882812 13.402344 0.890625 13.46875 0.898438 C 13.613281 0.917969 13.757812 0.941406 13.902344 0.964844 C 13.96875 0.976562 14.03125 0.988281 14.09375 1 C 14.246094 1.027344 14.394531 1.0625 14.546875 1.097656 C 14.601562 1.109375 14.65625 1.121094 14.710938 1.132812 C 14.894531 1.179688 15.078125 1.230469 15.257812 1.285156 C 15.277344 1.292969 15.296875 1.296875 15.3125 1.300781 C 15.507812 1.363281 15.699219 1.429688 15.890625 1.496094 C 15.964844 1.527344 16.039062 1.558594 16.113281 1.585938 C 16.226562 1.628906 16.335938 1.675781 16.445312 1.722656 C 16.539062 1.761719 16.632812 1.804688 16.726562 1.847656 C 16.808594 1.890625 16.890625 1.929688 16.976562 1.96875 C 17.035156 2 17.097656 2.03125 17.15625 2.0625 C 15.628906 2.675781 14.679688 3.425781 13.617188 4.808594 C 13.464844 5.003906 13.390625 5.246094 13.394531 5.484375 C 13.304688 5.261719 13.171875 5.09375 12.992188 4.976562 C 12.621094 4.734375 12.136719 4.75 11.507812 5.03125 L 11.394531 5.042969 C 10.59375 5.132812 10.152344 5.183594 10.109375 6.054688 C 10.089844 6.496094 10.328125 6.933594 10.714844 7.164062 C 10.8125 7.226562 10.914062 7.269531 11.019531 7.292969 C 11.03125 7.332031 11.046875 7.371094 11.074219 7.410156 L 11.234375 7.632812 L 11.492188 7.589844 C 11.714844 7.550781 11.898438 7.542969 12.023438 7.546875 C 12.003906 7.726562 12.035156 7.90625 12.117188 8.070312 C 12.226562 8.292969 12.417969 8.457031 12.652344 8.53125 C 12.878906 8.601562 12.898438 8.667969 12.925781 8.761719 C 13.054688 9.203125 13.347656 9.53125 13.726562 9.65625 C 14.089844 9.777344 14.496094 9.699219 14.839844 9.441406 C 15.042969 9.289062 15.160156 9.320312 15.609375 9.535156 C 15.902344 9.679688 16.269531 9.855469 16.742188 9.914062 C 16.816406 9.925781 16.859375 9.949219 16.875 9.964844 C 17.203125 10.304688 17.453125 10.730469 17.691406 11.140625 C 18.0625 11.769531 18.410156 12.367188 19.011719 12.675781 C 19.480469 12.921875 18.957031 14.300781 18.703125 14.964844 C 18.652344 15.097656 18.605469 15.222656 18.566406 15.332031 C 17.957031 15.804688 17.582031 16.335938 17.222656 16.851562 C 16.898438 17.3125 16.566406 17.792969 16.050781 18.238281 C 15.269531 18.910156 14.605469 19.3125 13.839844 19.585938 C 13.714844 19.628906 13.632812 19.554688 13.601562 19.519531 C 13.574219 19.488281 13.515625 19.398438 13.578125 19.285156 C 14.367188 17.875 15.28125 15.882812 14.097656 14.902344 C 12.941406 13.945312 12.507812 12.554688 12.992188 11.359375 C 13.199219 10.851562 12.96875 10.28125 12.457031 10.015625 C 12.414062 9.960938 12.382812 9.730469 12.363281 9.574219 C 12.316406 9.238281 12.261719 8.816406 12.011719 8.449219 C 11.90625 8.296875 11.722656 8.160156 11.59375 8.097656 C 11.105469 7.859375 10.636719 7.792969 10.183594 7.726562 C 9.820312 7.671875 9.480469 7.625 9.132812 7.492188 C 7.808594 6.980469 6.863281 4.832031 6.175781 3.261719 C 6.078125 3.035156 5.980469 2.820312 5.890625 2.621094 C 5.9375 2.589844 5.988281 2.558594 6.035156 2.527344 Z M 12 23.199219 C 5.824219 23.199219 0.800781 18.175781 0.800781 12 C 0.800781 8.371094 2.539062 5.136719 5.222656 3.089844 C 5.296875 3.25 5.367188 3.414062 5.441406 3.585938 C 6.230469 5.378906 7.207031 7.609375 8.847656 8.238281 C 9.277344 8.402344 9.679688 8.460938 10.066406 8.519531 C 10.476562 8.578125 10.863281 8.632812 11.242188 8.820312 C 11.273438 8.835938 11.335938 8.882812 11.351562 8.902344 C 11.492188 9.113281 11.53125 9.402344 11.570312 9.683594 C 11.621094 10.070312 11.679688 10.507812 12.070312 10.714844 C 12.199219 10.78125 12.308594 10.917969 12.253906 11.058594 C 11.632812 12.582031 12.15625 14.332031 13.589844 15.519531 C 13.957031 15.824219 14.132812 16.65625 12.878906 18.898438 C 12.675781 19.265625 12.71875 19.714844 12.992188 20.039062 C 13.191406 20.273438 13.472656 20.398438 13.765625 20.398438 C 13.878906 20.398438 13.996094 20.378906 14.109375 20.339844 C 14.972656 20.03125 15.710938 19.585938 16.570312 18.84375 C 17.164062 18.332031 17.527344 17.8125 17.878906 17.3125 C 18.234375 16.804688 18.570312 16.324219 19.117188 15.917969 C 19.199219 15.859375 19.257812 15.78125 19.289062 15.691406 C 19.332031 15.5625 19.390625 15.414062 19.453125 15.25 C 19.863281 14.171875 20.484375 12.542969 19.382812 11.96875 C 18.984375 11.761719 18.707031 11.289062 18.382812 10.738281 C 18.128906 10.308594 17.84375 9.824219 17.457031 9.414062 C 17.304688 9.253906 17.09375 9.15625 16.84375 9.121094 C 16.5 9.078125 16.226562 8.945312 15.960938 8.816406 C 15.519531 8.605469 14.972656 8.339844 14.359375 8.804688 C 14.265625 8.875 14.125 8.945312 13.980469 8.898438 C 13.855469 8.855469 13.75 8.722656 13.695312 8.539062 C 13.617188 8.269531 13.457031 7.941406 12.890625 7.765625 C 12.867188 7.757812 12.847656 7.742188 12.832031 7.714844 C 12.816406 7.679688 12.8125 7.632812 12.832031 7.585938 C 12.90625 7.378906 12.875 7.171875 12.746094 7.011719 C 12.605469 6.839844 12.347656 6.75 11.988281 6.746094 C 11.972656 6.683594 11.941406 6.621094 11.882812 6.558594 L 11.636719 6.335938 L 11.367188 6.496094 C 11.292969 6.539062 11.214844 6.53125 11.128906 6.480469 C 10.992188 6.398438 10.90625 6.238281 10.910156 6.089844 C 10.914062 6 10.921875 5.949219 10.925781 5.917969 C 11.023438 5.890625 11.257812 5.863281 11.484375 5.835938 L 11.726562 5.808594 L 11.789062 5.78125 C 12.144531 5.617188 12.429688 5.566406 12.550781 5.644531 C 12.601562 5.675781 12.757812 5.832031 12.742188 6.476562 L 12.730469 6.832031 L 13.082031 6.882812 C 13.539062 6.953125 13.878906 6.863281 14.089844 6.621094 C 14.304688 6.371094 14.347656 5.996094 14.203125 5.515625 C 14.183594 5.445312 14.203125 5.359375 14.25 5.296875 C 15.359375 3.855469 16.285156 3.195312 18.054688 2.582031 C 21.144531 4.578125 23.199219 8.054688 23.199219 12 C 23.199219 18.175781 18.175781 23.199219 12 23.199219 Z M 12 23.199219"/>
</svg>

<svg xmlns="http://www.w3.org/2000/svg" width="32" height="32" viewBox="0 0 24 24">
    <path d="M18.805 2.121l.02-.012-.532-.328c-.031-.02-.063-.035-.094-.054a23.341 23.341 0 0 0-.531-.301l-.273-.14c-.137-.067-.274-.134-.41-.196-.083-.04-.16-.078-.243-.113-.215-.09-.43-.176-.652-.258-.043-.016-.09-.031-.137-.047a14.438 14.438 0 0 0-.582-.188c-.062-.015-.125-.035-.187-.05a9.58 9.58 0 0 0-.66-.164C14.5.266 14.48.258 14.46.254a11.9 11.9 0 0 0-.746-.129c-.059-.008-.113-.016-.168-.02a9.851 9.851 0 0 0-.594-.062c-.066-.004-.133-.012-.2-.016C12.504.012 12.254 0 12 0c-.273 0-.543.012-.813.031-.07.004-.14.008-.21.016-.25.02-.504.047-.75.086a.479.479 0 0 1-.075.008 11.853 11.853 0 0 0-.98.199c-.227.055-.45.113-.668.18-.07.023-.14.046-.207.066-.2.066-.39.137-.586.207l-.262.105c-.222.09-.437.188-.652.29-.07.035-.14.074-.211.109a7.438 7.438 0 0 0-.492.266c-.082.046-.164.09-.246.14-.203.121-.403.246-.598.379-.023.02-.055.035-.078.055l-.219.152v.008C1.953 4.48 0 8.016 0 12c0 6.617 5.383 12 12 12s12-5.383 12-12c0-4.094-2.063-7.71-5.195-9.879zm-12.77.406c.13-.082.262-.16.39-.238.075-.039.15-.086.223-.125a10.853 10.853 0 0 1 .813-.398 19.5 19.5 0 0 1 .422-.18c.078-.031.156-.063.234-.09.203-.078.406-.144.613-.207.079-.023.153-.047.23-.066.161-.047.321-.086.485-.125a12.871 12.871 0 0 1 .895-.176c.05-.008.101-.012.156-.02.191-.023.383-.047.574-.062.07-.004.137-.012.203-.016.243-.011.485-.023.727-.023a11.41 11.41 0 0 1 .813.031c.152.012.304.023.453.043l.203.023a16.609 16.609 0 0 1 .625.102c.152.027.3.063.453.098l.164.035c.184.047.367.097.547.152.02.008.039.012.055.016.195.062.386.129.578.195.074.031.148.063.222.09.114.043.223.09.332.137.094.039.188.082.282.125.082.043.164.082.25.12.058.032.12.063.18.095-1.528.613-2.477 1.363-3.54 2.746a1.073 1.073 0 0 0-.222.675 1.054 1.054 0 0 0-.403-.507c-.37-.243-.855-.227-1.484.054l-.113.012c-.801.09-1.243.14-1.286 1.012-.02.441.22.879.606 1.11.098.062.2.105.305.128.011.039.027.078.054.117l.16.223.258-.043c.223-.04.406-.047.531-.043-.02.18.012.36.094.523.11.223.301.387.535.461.227.07.246.137.274.23.129.442.422.77.8.895.364.121.77.043 1.114-.215.203-.152.32-.12.77.094.292.145.66.32 1.132.38.074.01.117.034.133.05.328.34.578.765.816 1.176.372.629.72 1.226 1.32 1.535.47.246-.054 1.625-.308 2.289-.05.133-.098.258-.137.367-.609.473-.984 1.004-1.343 1.52-.325.46-.657.941-1.172 1.386-.781.672-1.446 1.075-2.211 1.348a.215.215 0 0 1-.238-.066.2.2 0 0 1-.024-.235c.79-1.41 1.703-3.402.52-4.383-1.157-.957-1.59-2.347-1.106-3.543.207-.507-.023-1.078-.535-1.343-.043-.055-.074-.286-.094-.442-.047-.336-.101-.758-.351-1.125a1.198 1.198 0 0 0-.418-.351c-.489-.239-.957-.305-1.41-.371-.364-.055-.704-.102-1.051-.235-1.324-.512-2.27-2.66-2.957-4.23-.098-.227-.196-.442-.285-.64.046-.032.097-.063.144-.095zM12 23.2C5.824 23.2.8 18.176.8 12c0-3.629 1.74-6.863 4.423-8.91.074.16.144.324.218.496.79 1.793 1.766 4.023 3.407 4.652.43.164.832.223 1.218.282.41.058.797.113 1.176.3a.5.5 0 0 1 .11.082c.14.211.18.5.218.782.051.386.11.824.5 1.03.13.067.239.204.184.345-.621 1.523-.098 3.273 1.336 4.46.367.305.543 1.137-.711 3.38-.203.367-.16.816.113 1.14a1.009 1.009 0 0 0 1.117.3c.864-.308 1.602-.753 2.461-1.495.594-.512.957-1.032 1.309-1.532.355-.507.691-.988 1.238-1.394a.465.465 0 0 0 .172-.227c.043-.129.102-.277.164-.441.41-1.078 1.031-2.707-.07-3.281-.399-.207-.676-.68-1-1.23-.254-.43-.54-.915-.926-1.325a1.022 1.022 0 0 0-.613-.293c-.344-.043-.617-.176-.883-.305-.441-.21-.988-.476-1.602-.011-.093.07-.234.14-.379.093-.125-.043-.23-.175-.285-.359-.078-.27-.238-.598-.804-.773a.104.104 0 0 1-.059-.051.163.163 0 0 1 0-.13.58.58 0 0 0-.086-.573c-.14-.172-.398-.262-.758-.266a.417.417 0 0 0-.105-.187l-.246-.223-.27.16c-.074.043-.152.035-.238-.016a.46.46 0 0 1-.219-.39c.004-.09.012-.14.016-.172.097-.027.332-.055.558-.082l.243-.027.062-.028c.356-.164.64-.215.762-.136.05.03.207.187.191.832l-.012.355.352.05c.457.071.797-.019 1.008-.26.215-.25.258-.626.113-1.106-.02-.07 0-.157.047-.22 1.11-1.44 2.035-2.1 3.805-2.714 3.09 1.996 5.144 5.473 5.144 9.418 0 6.176-5.023 11.2-11.199 11.2zm0 0"/>
</svg>
